X: 1376
T: Muhayyer Peşrev
C: Tanburî İsak
O: Turkey
F: http://compmusic.upf.edu/node/140
N: muhayyer--pesrev--darbifetih----tanburi_isak
N: makam= muhayyer
N: form= pesrev
N: usul= darbifetih = 88/4
M: 88/4
L: 1/16
K: C _2/4B ^3/4f  
Q: 1/4=60
%%MIDI tuningsystem comma53
g4 a4 a4 g4  | =f2 g2 f2 g2 a4 =b4  | \
w:   |   | 
g4 a8 =b2 c'2  | =b3a g4 c'8  | =b2 c'2 b2 c'2 a4 z4  | 
w:   |   |   | 
=f4 g2 a2 g4 f4  | g3=f e8 d4  | =f4 g8 f4  | \
w:   |   |   | 
g2 =f2 g2 a2 g4 a4  | g6 c'2 d'3c' =b2 c'2  | 
w:   |   | 
=b4 c'8 d'2 e'2  | d'4 c'8 =b4  | a6 =b2 c'2 d'2 c'2 b2  | \
w:   |   |   | 
c'3=b a4 b3a g2 a2  | g4 a8 a2 a2  | 
w:   |   | 
a6 =b2 a4 g4  | =f4 g2 a2 g4 f4  | e6 g2 =f2 g2 a4  | \
w:   |   |   | 
z4 e8 d4  | e3d c2 d2 e4 z4  | 
w:   |   | 
d2 e2 =f2 g2 f4 g2 a2  | g4 =f2 e2 d8  | \
w:   |   | 
z4 e2 d2 e4 =f4  | g4 a2 g2 =f4 g2 f2  | 
w:   |   | 
e6 =f2 e4 d4  | d6 c2 d2 =f2 e2 d2  | \
w:   |   | 
d3c =B2 c2 d4 c2 B2  | A6 =B2 c4 d2 e2  | 
w:   |   | 
d2 e2 d2 c2 d2 c2 =B2 A2  | =B2 A2 ^G2 A2 G4 A4  | \
w:   |   | 
=B6 c2 d4 c2 B2  | =B2 AB A2 ^G2 A8  | 
w:   |   | 
g4 a8 g2 =f2  | =b2 a2 g2 =f2 ag fe d4  | \
w:   |   | 
=f4 g4 z2 a2 g2 f2  | g4 g2 =f2 f2 (3ede d4  | 
w:   |   | 
d4 e8 d4  | d4 c2 =B2 A4 d2 e2  | d2 e2 d2 c2 c2 d2 c2 =B2  | \
w:   |   |   | 
A4 ^G4 =B3A G2 A2  | 
w:   | 
^G4 A8 c4  | =B6 c2 B3A ^G2 A2  | ^G4 A8 (3=B2A2B2  | \
w:   |   |   | 
A2 =B2 c2 d2 e2 =f2 g2 a2  | 
w:   | 
A2 =B2 c2 d2 c2 d2 e4  | A2 =B2 c2 d2 c2 d2 e4  | \
w:   |   | 
A2 =B2 c2 d2 e2 =f2 g2 a2  | 
w:   | 
A12 z4  | |


